assets/ai/ai-open-materials.svg

<svg xmlns="http://www.w3.org/2000/svg" width="100%" height="100%" viewBox="-43.52 -43.52 599.04 599.04"><path d="m 255.99051,7.9999992 c -14.45957,0 -28.91558,3.1667158 -39.88958,9.5105468 L 69.397238,102.20596 C 47.455739,114.88072 29.50769,145.96034 29.50769,171.29036 v 169.41925 c 0,25.33653 17.948049,56.42568 39.889548,69.0939 l 146.703692,84.71437 c 10.974,6.32444 25.4365,9.48212 39.88958,9.48212 14.46596,0 28.92849,-3.15768 39.88953,-9.48212 l 146.72261,-84.71437 c 21.9352,-12.66822 39.88966,-43.75737 39.88966,-69.0939 V 171.29036 c 0,-25.33002 -17.95446,-56.40964 -39.88966,-69.0844 L 295.88952,17.510546 c -10.974,-6.343831 -25.43305,-9.5105468 -39.89901,-9.5105468 z m -58.05822,145.7374608 58.06766,22.86711 58.09612,-22.86711 100.07901,40.79892 -58.06755,22.85762 V 317.49208 L 255.99995,358.27204 155.90196,317.49208 V 217.394 L 97.815363,194.53638 Z M 155.90196,217.394 255.99995,258.16451 356.10753,217.394 255.99995,176.60457 Z"/></svg>

<svg xmlns="http://www.w3.org/2000/svg" width="100%" height="100%" viewBox="-43.52 -43.52 599.04 599.04"><path d="M255.99 8c-14.46 0-28.915 3.167-39.89 9.51L69.398 102.207c-21.941 12.675-39.89 43.754-39.89 69.084v169.42c0 25.336 17.949 56.425 39.89 69.094l146.704 84.714c10.974 6.324 25.436 9.482 39.89 9.482 14.465 0 28.928-3.158 39.889-9.482l146.723-84.714c21.935-12.669 39.89-43.758 39.89-69.094V171.29c0-25.33-17.955-56.41-39.89-69.084L295.89 17.511C284.916 11.167 270.456 8 255.99 8zm-58.058 145.737L256 176.605l58.096-22.868 100.08 40.8-58.068 22.857v100.098L256 358.272l-100.098-40.78V217.394l-58.087-22.858zm-42.03 63.657L256 258.164l100.108-40.77L256 176.604z"/></svg>
